logos/appwrite.svg

<?xml version="1.0" encoding="UTF-8"?>
<svg width="512px" height="91px" viewBox="0 0 512 91" version="1.1" xmlns="http://www.w3.org/2000/svg" preserveAspectRatio="xMidYMid">
    <title>Appwrite</title>
    <g>
        <path d="M52.3936701,15.9170076 C57.5347492,12.9344456 63.5076238,11.2264422 69.8795925,11.2264422 C89.1507658,11.2264422 104.772661,26.8483373 104.772661,46.1195106 C104.772661,65.3906839 89.1507658,81.012579 69.8795925,81.012579 C63.5100006,81.012579 57.5391543,79.3058829 52.3993315,76.3249621 C40.6273349,83.1336923 25.4332929,82.6792625 13.8950063,73.9722315 C3.9343158,66.4666238 -1.26295671,54.2152961 0.262559521,41.8369965 C1.78807575,29.4586969 9.80439131,18.8358273 21.2893567,13.9732076 C31.4595328,9.66725659 42.9800885,10.4580438 52.3936701,15.9170076 Z M12.202424,28.9816458 C2.73744269,41.5243397 5.23242163,59.3650854 17.7751155,68.8300668 C30.3178093,78.2950482 48.1585551,75.8000692 57.6235365,63.2573754 C63.9636752,54.8556241 64.9373559,44.0766264 61.1193308,35.0302394 C58.3141388,28.4266463 53.0860051,23.1017149 46.5506238,20.1708776 L46.5659926,20.1572686 C34.7230439,14.8287257 20.3554028,18.1775764 12.202424,28.9816458 Z M37.3887777,33.9042526 C38.4565055,33.9042526 38.8065099,33.9654496 38.744776,34.1501145 C38.6825053,34.2939813 38.3743726,35.5254382 38.0667768,36.8814365 C37.8445348,37.8577553 37.3673832,39.877367 36.8721541,41.9668951 L36.706733,42.6646588 C36.5688657,43.246061 36.4316339,43.824513 36.3001139,44.3791517 C35.6430506,47.1518086 34.8211846,50.6851344 34.4507813,52.2252608 L34.4507813,52.2252608 L33.8146538,55.0607252 L32.3969216,55.0607252 C31.6169273,55.0607252 30.9797262,54.9775186 30.9797262,54.8755235 C30.9797262,54.505657 31.5959915,51.7120642 32.623995,47.4604781 C33.1570537,45.1392838 34.1018506,41.2162293 34.6982537,38.7307691 C35.2726473,36.245309 35.8062428,34.1501145 35.8481145,34.0470457 C35.8883757,33.9654496 36.5873107,33.9042526 37.3887777,33.9042526 Z M28.433069,40.8871608 C29.377866,40.8871608 30.1583971,40.9488947 30.1583971,41.0310276 C30.1583971,41.1335595 29.418664,41.9972972 28.5152019,43.0032912 C27.6112031,43.989423 26.87147,44.9132841 26.87147,45.0571509 C26.87147,45.1800818 27.6724001,46.1667504 28.6386697,47.1926067 L28.6386697,47.1926067 L30.4047958,49.1031364 L26.6664061,49.1031364 L25.3517427,47.7068768 C24.6329455,46.9467447 23.7896068,46.02181 23.4825478,45.6524803 L23.4825478,45.6524803 L22.9274796,44.995417 L24.8170735,42.9410205 L26.72814,40.8871608 Z M42.7912983,40.8871608 L44.6390205,42.8803602 C45.6664871,43.9684871 46.4878163,44.9342199 46.4878163,45.036215 C46.4878163,45.159146 45.707822,46.1055534 44.7415524,47.1727444 L44.7415524,47.1727444 L42.9963622,49.0827373 L41.0858325,49.1031364 L39.1763764,49.1031364 L40.8807686,47.2339415 C41.8250287,46.2274107 42.6060966,45.2627516 42.6468947,45.1183479 C42.7086286,44.852087 41.5791668,43.4955518 39.9756961,41.8936916 C39.5451693,41.4620912 39.1957018,41.0723624 39.1957018,41.0100917 C39.1957018,40.9488947 39.9966319,40.8871608 41.0031627,40.8871608 L41.0031627,40.8871608 L42.7912983,40.8871608 Z" fill="#F02E65"></path>
        <path d="M144.923846,20.5117561 C149.712249,20.5117561 153.793664,21.751802 157.168629,24.231894 C160.543594,26.7119859 162.864252,29.998913 164.131139,34.0932119 L164.131139,21.1129905 L170.105905,21.1129905 L170.105905,68.3635733 L164.131139,68.3635733 L164.131139,55.3833519 C162.864252,59.4808717 160.543594,62.769946 157.168629,65.250038 C153.793664,67.7301299 149.712249,68.9701759 144.923846,68.9701759 C140.654545,68.9701759 136.832412,67.9894123 133.457447,66.0284218 C130.082482,64.0674314 127.45745,61.2545132 125.58235,57.5896674 C123.70725,53.9248216 122.769432,49.6410264 122.769432,44.7382819 C122.769432,39.778098 123.70725,35.4658516 125.58235,31.8010058 C127.45745,28.1399177 130.068525,25.343104 133.414502,23.4105648 C136.760479,21.4780257 140.597106,20.5117561 144.923846,20.5117561 L144.923846,20.5117561 Z M146.480614,25.8745523 C141.17311,25.8745523 136.918303,27.5617663 133.715119,30.9367313 C130.515693,34.3116962 128.91598,38.9122131 128.91598,44.7382819 C128.91598,50.5643507 130.515693,55.1648676 133.715119,58.5398325 C136.918303,61.9147975 141.17311,63.6020115 146.480614,63.6020115 C149.826591,63.6020115 152.840278,62.8236277 155.520603,61.26686 C158.204685,59.7100923 160.310616,57.5037768 161.838932,54.6479133 C163.367249,51.7920499 164.131139,48.4890183 164.131139,44.7382819 C164.131139,40.9875455 163.367249,37.6861244 161.838932,34.8340186 C160.310616,31.9781552 158.204685,29.7702292 155.520603,28.2097038 C152.840278,26.6529361 149.826591,25.8745523 146.480614,25.8745523 Z M208.524247,20.5117561 C212.850988,20.5117561 216.673121,21.4780257 219.990647,23.4105648 C223.308172,25.343104 225.904753,28.1399177 227.779853,31.8010058 C229.654953,35.4658516 230.592771,39.778098 230.592771,44.7382819 C230.592771,49.6410264 229.654953,53.9248216 227.779853,57.5896674 C225.904753,61.2545132 223.293678,64.0674314 219.947701,66.0284218 C216.601724,67.9894123 212.793549,68.9701759 208.524247,68.9701759 C203.678405,68.9701759 199.582496,67.7301299 196.236519,65.250038 C192.890542,62.769946 190.583842,59.4808717 189.316955,55.3833519 L189.316955,90.6897689 L183.256298,90.6897689 L183.256298,21.1129905 L189.316955,21.1129905 L189.316955,34.0932119 C190.583842,29.998913 192.890542,26.7119859 196.236519,24.231894 C199.582496,21.751802 203.678405,20.5117561 208.524247,20.5117561 L208.524247,20.5117561 Z M206.881589,25.8745523 C203.535612,25.8745523 200.520314,26.6529361 197.836232,28.2097038 C195.155908,29.7702292 193.065545,31.9781552 191.566216,34.8340186 C190.066888,37.6861244 189.316955,40.9875455 189.316955,44.7382819 C189.316955,48.4890183 190.066888,51.7920499 191.566216,54.6479133 C193.065545,57.5037768 195.155908,59.7100923 197.836232,61.26686 C200.520314,62.8236277 203.535612,63.6020115 206.881589,63.6020115 C212.245996,63.6020115 216.515834,61.9147975 219.690029,58.5398325 C222.861004,55.1648676 224.446223,50.5643507 224.446223,44.7382819 C224.446223,38.9122131 222.861004,34.3116962 219.690029,30.9367313 C216.515834,27.5617663 212.245996,25.8745523 206.881589,25.8745523 Z M266.761852,20.5117561 C271.088593,20.5117561 274.910726,21.4780257 278.228251,23.4105648 C281.545777,25.343104 284.142358,28.1399177 286.017458,31.8010058 C287.892558,35.4658516 288.830376,39.778098 288.830376,44.7382819 C288.830376,49.6410264 287.892558,53.9248216 286.017458,57.5896674 C284.142358,61.2545132 281.531283,64.0674314 278.185306,66.0284218 C274.839329,67.9894123 271.031153,68.9701759 266.761852,68.9701759 C261.91601,68.9701759 257.820101,67.7301299 254.474124,65.250038 C251.128147,62.769946 248.821447,59.4808717 247.55456,55.3833519 L247.55456,90.6897689 L241.493903,90.6897689 L241.493903,21.1129905 L247.55456,21.1129905 L247.55456,34.0932119 C248.821447,29.998913 251.128147,26.7119859 254.474124,24.231894 C257.820101,21.751802 261.91601,20.5117561 266.761852,20.5117561 Z M265.119194,25.8745523 C261.773217,25.8745523 258.757919,26.6529361 256.073837,28.2097038 C253.393513,29.7702292 251.303149,31.9781552 249.803821,34.8340186 C248.304493,37.6861244 247.55456,40.9875455 247.55456,44.7382819 C247.55456,48.4890183 248.304493,51.7920499 249.803821,54.6479133 C251.303149,57.5037768 253.393513,59.7100923 256.073837,61.26686 C258.757919,62.8236277 261.773217,63.6020115 265.119194,63.6020115 C270.483601,63.6020115 274.753439,61.9147975 277.927634,58.5398325 C281.098609,55.1648676 282.683828,50.5643507 282.683828,44.7382819 C282.683828,38.9122131 281.098609,34.3116962 277.927634,30.9367313 C274.753439,27.5617663 270.483601,25.8745523 265.119194,25.8745523 Z M355.893243,20.4258654 L367.316697,20.4258654 L354.422366,68.3635733 L340.921433,68.3635733 L330.625293,33.4919775 L320.066114,68.3635733 L306.570549,68.3635733 L293.762109,20.4258654 L305.963946,20.4258654 L313.753153,57.4608315 L324.392855,20.4258654 L337.287185,20.4258654 L348.018146,57.4608315 L355.893243,20.4258654 L355.893243,20.4258654 Z M385.576508,29.5946902 C387.36196,26.5385942 389.726099,24.1298989 392.667853,22.369141 C395.612828,20.6121408 398.901903,19.7333722 402.534539,19.7333722 L402.534539,32.7994843 L398.986183,32.7994843 C390.046042,32.7994843 385.576508,36.9528331 385.576508,45.2589938 L385.576508,68.3635733 L373.37467,68.3635733 L373.37467,20.4258654 L385.576508,20.4258654 L385.576508,29.5946902 Z M407.901093,6.66189199 C407.901093,4.70090154 408.593586,3.10118856 409.978573,1.86275304 C411.363559,0.621096618 413.180146,0 415.42726,0 C417.678668,0 419.496328,0.621096618 420.881315,1.86275304 C422.266301,3.10118856 422.958794,4.70090154 422.958794,6.66189199 C422.958794,8.56597989 422.266301,10.1388521 420.881315,11.3805085 C419.496328,12.6221649 417.678668,13.2432615 415.42726,13.2432615 C413.180146,13.2432615 411.363559,12.6221649 409.978573,11.3805085 C408.593586,10.1388521 407.901093,8.56597989 407.901093,6.66189199 Z M409.28608,20.4258654 L421.487917,20.4258654 L421.487917,68.3635733 L409.28608,68.3635733 L409.28608,20.4258654 Z M453.419369,57.8902846 L458.175563,57.8902846 L458.175563,68.3635733 L451.771343,68.3635733 C446.4064,68.3635733 442.296533,67.066088 439.440669,64.4716541 C436.584806,61.8734626 435.156874,57.5467221 435.156874,51.4914327 L435.156874,30.7220047 L428.494982,30.7220047 L428.494982,20.4258654 L435.156874,20.4258654 L435.156874,8.56759034 L447.358712,8.56759034 L447.358712,20.4258654 L458.089672,20.4258654 L458.089672,30.7220047 L447.358712,30.7220047 L447.358712,51.6632139 C447.358712,53.9715246 447.820374,55.5873421 448.743698,56.5106664 C449.667023,57.4302329 451.225401,57.8902846 453.419369,57.8902846 L453.419369,57.8902846 Z M512,42.5749117 C512,43.7881168 511.85667,45.1731032 511.570547,46.7298709 L476.435911,46.7298709 C476.607692,50.999172 477.761848,54.1433059 479.898377,56.1617357 C482.031149,58.1801655 484.684632,59.1893804 487.859365,59.1893804 C490.68624,59.1893804 493.035886,58.4968872 494.907765,57.1119008 C496.782864,55.7306721 497.979965,53.8571827 498.499067,51.4914327 L511.393397,51.4914327 C510.759954,54.8374095 509.405029,57.836603 507.329697,60.4884762 C505.25007,63.1441071 502.582092,65.2215867 499.325764,66.720915 C496.065141,68.2202433 492.445388,68.9701759 488.465967,68.9701759 C483.791907,68.9701759 479.636947,67.975455 476.00109,65.9854765 C472.368453,63.995498 469.543188,61.1541286 467.524758,57.4608315 C465.502571,53.7675344 464.491745,49.4123426 464.491745,44.3947194 C464.491745,39.3738752 465.502571,35.0041894 467.524758,31.285662 C469.543188,27.5639136 472.368453,24.7220074 476.00109,22.7610169 C479.636947,20.8000265 483.791907,19.8192629 488.465967,19.8192629 C493.193173,19.8192629 497.332028,20.8000265 500.882532,22.7610169 C504.428741,24.7220074 507.168652,27.4189732 509.101191,30.8508407 C511.03373,34.2827081 512,38.1907318 512,42.5749117 Z M499.712272,41.3670747 C499.887274,37.4413361 498.864102,34.4689835 496.641682,32.4505536 C494.419262,30.4321238 491.693845,29.4229089 488.465967,29.4229089 C485.176893,29.4229089 482.40692,30.4321238 480.156049,32.4505536 C477.904641,34.4689835 476.664595,37.4413361 476.435911,41.3670747 L499.712272,41.3670747 Z" fill="#F02E65"></path>
    </g>
</svg>

<svg preserveAspectRatio="xMidYMid" viewBox="0 0 512 91" xmlns="http://www.w3.org/2000/svg">
  <g fill="#F02E65">
    <path d="M52.394 15.917a34.736 34.736 0 0 1 17.486-4.69c19.27 0 34.893 15.621 34.893 34.893 0 19.27-15.622 34.893-34.893 34.893a34.73 34.73 0 0 1-17.48-4.688c-11.773 6.809-26.967 6.354-38.505-2.353a34.893 34.893 0 0 1 38.499-58.055ZM12.202 28.982c-9.465 12.542-6.97 30.383 5.573 39.848s30.384 6.97 39.849-5.573c6.34-8.401 7.313-19.18 3.495-28.227a28.556 28.556 0 0 0-14.568-14.86l.015-.013c-11.843-5.328-26.21-1.98-34.364 8.825Zm25.187 4.922c1.068 0 1.418.061 1.356.246-.062.144-.37 1.375-.678 2.731-.222.977-.7 2.996-1.195 5.086l-.165.698-.407 1.714c-.657 2.773-1.479 6.306-1.85 7.846l-.635 2.836h-1.418c-.78 0-1.417-.083-1.417-.185 0-.37.616-3.164 1.644-7.416.533-2.32 1.478-6.244 2.074-8.73.575-2.485 1.108-4.58 1.15-4.683.04-.082.74-.143 1.54-.143Zm-8.956 6.983c.945 0 1.725.062 1.725.144 0 .103-.74.966-1.643 1.972-.904.986-1.644 1.91-1.644 2.054 0 .123.801 1.11 1.768 2.136l1.766 1.91h-3.739l-1.314-1.396a59.51 59.51 0 0 1-1.87-2.055l-.555-.657 1.89-2.054 1.911-2.054Zm14.358 0 1.848 1.993c1.027 1.088 1.849 2.054 1.849 2.156 0 .123-.78 1.07-1.746 2.137l-1.746 1.91-1.91.02h-1.91l1.705-1.87c.944-1.006 1.725-1.97 1.766-2.115.062-.266-1.068-1.622-2.671-3.224-.43-.432-.78-.822-.78-.884 0-.061.8-.123 1.807-.123h1.788Z"/>
    <path d="M144.924 20.512c4.788 0 8.87 1.24 12.245 3.72 3.375 2.48 5.695 5.767 6.962 9.861v-12.98h5.975v47.25h-5.975v-12.98c-1.267 4.098-3.587 7.387-6.962 9.867-3.375 2.48-7.457 3.72-12.245 3.72-4.27 0-8.092-.98-11.467-2.942-3.375-1.96-6-4.773-7.875-8.438-1.875-3.665-2.813-7.949-2.813-12.852 0-4.96.938-9.272 2.813-12.937 1.875-3.661 4.487-6.458 7.833-8.39 3.345-1.933 7.182-2.9 11.509-2.9Zm1.557 5.363c-5.308 0-9.563 1.687-12.766 5.062-3.2 3.375-4.799 7.975-4.799 13.801 0 5.826 1.6 10.427 4.8 13.802 3.202 3.375 7.457 5.062 12.765 5.062 3.346 0 6.36-.778 9.04-2.335 2.684-1.557 4.79-3.763 6.318-6.62 1.528-2.855 2.292-6.158 2.292-9.909 0-3.75-.764-7.052-2.292-9.904-1.528-2.856-3.634-5.064-6.318-6.624-2.68-1.557-5.694-2.335-9.04-2.335Zm62.043-5.363c4.327 0 8.15.966 11.467 2.899 3.317 1.932 5.914 4.729 7.789 8.39 1.875 3.665 2.813 7.977 2.813 12.937 0 4.903-.938 9.187-2.813 12.852-1.875 3.665-4.486 6.477-7.832 8.438-3.346 1.961-7.154 2.942-11.424 2.942-4.846 0-8.942-1.24-12.287-3.72-3.346-2.48-5.653-5.77-6.92-9.867V90.69h-6.06V21.113h6.06v12.98c1.267-4.094 3.574-7.381 6.92-9.861 3.345-2.48 7.441-3.72 12.287-3.72Zm-1.642 5.363c-3.346 0-6.362.778-9.046 2.335-2.68 1.56-4.77 3.768-6.27 6.624-1.5 2.852-2.249 6.154-2.249 9.904 0 3.751.75 7.054 2.25 9.91 1.499 2.856 3.589 5.062 6.27 6.619 2.683 1.557 5.699 2.335 9.045 2.335 5.364 0 9.634-1.687 12.808-5.062 3.171-3.375 4.756-7.976 4.756-13.802s-1.585-10.426-4.756-13.801c-3.174-3.375-7.444-5.062-12.808-5.062Zm59.88-5.363c4.327 0 8.149.966 11.466 2.899 3.318 1.932 5.914 4.729 7.79 8.39 1.875 3.665 2.812 7.977 2.812 12.937 0 4.903-.937 9.187-2.813 12.852-1.875 3.665-4.486 6.477-7.832 8.438-3.346 1.961-7.154 2.942-11.423 2.942-4.846 0-8.942-1.24-12.288-3.72-3.346-2.48-5.653-5.77-6.92-9.867V90.69h-6.06V21.113h6.06v12.98c1.267-4.094 3.574-7.381 6.92-9.861 3.346-2.48 7.442-3.72 12.288-3.72Zm-1.643 5.363c-3.346 0-6.361.778-9.045 2.335-2.68 1.56-4.77 3.768-6.27 6.624-1.5 2.852-2.25 6.154-2.25 9.904 0 3.751.75 7.054 2.25 9.91s3.59 5.062 6.27 6.619c2.684 1.557 5.7 2.335 9.045 2.335 5.365 0 9.634-1.687 12.809-5.062 3.17-3.375 4.756-7.976 4.756-13.802s-1.585-10.426-4.756-13.801c-3.175-3.375-7.444-5.062-12.809-5.062Zm90.774-5.45h11.424l-12.895 47.939h-13.5l-10.297-34.872-10.559 34.872h-13.495l-12.809-47.938h12.202l7.79 37.035 10.639-37.035h12.894l10.731 37.035 7.875-37.035Zm29.684 9.17c1.785-3.056 4.15-5.465 7.09-7.226 2.946-1.757 6.235-2.636 9.868-2.636V32.8h-3.549c-8.94 0-13.41 4.154-13.41 12.46v23.105h-12.201V20.426h12.202v9.169ZM407.9 6.662c0-1.961.693-3.56 2.078-4.8C411.364.623 413.18 0 415.427 0c2.252 0 4.07.621 5.454 1.863 1.385 1.238 2.078 2.838 2.078 4.799 0 1.904-.693 3.477-2.078 4.719-1.385 1.241-3.202 1.862-5.454 1.862-2.247 0-4.063-.62-5.448-1.862-1.385-1.242-2.078-2.815-2.078-4.72Zm1.385 13.764h12.202v47.938h-12.202V20.426ZM453.42 57.89h4.757v10.474h-6.405c-5.365 0-9.474-1.298-12.33-3.892-2.856-2.599-4.284-6.925-4.284-12.98v-20.77h-6.662V20.426h6.662V8.568h12.202v11.858h10.73v10.296h-10.73v20.941c0 2.309.461 3.924 1.385 4.848.923.92 2.481 1.38 4.675 1.38ZM512 42.575c0 1.213-.143 2.598-.43 4.155h-35.134c.172 4.27 1.326 7.413 3.462 9.432 2.133 2.018 4.787 3.027 7.961 3.027 2.827 0 5.177-.692 7.049-2.077 1.875-1.381 3.072-3.255 3.591-5.62h12.894c-.633 3.345-1.988 6.345-4.063 8.996-2.08 2.656-4.748 4.734-8.004 6.233-3.26 1.5-6.88 2.25-10.86 2.25-4.674 0-8.83-.996-12.465-2.986-3.633-1.99-6.458-4.83-8.476-8.524-2.022-3.693-3.033-8.049-3.033-13.066 0-5.021 1.01-9.39 3.033-13.11 2.018-3.721 4.843-6.563 8.476-8.524 3.636-1.961 7.79-2.942 12.465-2.942 4.727 0 8.866.981 12.417 2.942 3.546 1.961 6.286 4.658 8.218 8.09 1.933 3.432 2.899 7.34 2.899 11.724Zm-12.288-1.208c.175-3.926-.848-6.898-3.07-8.916-2.223-2.019-4.948-3.028-8.176-3.028-3.29 0-6.06 1.01-8.31 3.028-2.251 2.018-3.491 4.99-3.72 8.916h23.276Z"/>
  </g>
</svg>
